X: 41735
T: Valse Des Bas De Laine
R: waltz
M: 3/4
K: Dmajor
FG|:"D"A2 FA dA|f2 dA dA|"A"ge cA ce|"D"ef dA FG|
"D"A2 FA dA|f2 dA dA|"A"ge cA Bc|1 "D"d2 z2 FG:|2 "D"d2 z2 F2||
|:"G"G2 GA BG|"D"FA dF dF|"A"E2 c2 c2|"D"d2 z2 F2|
"G"G2 GA BG|"D"FA dF dF|"A"E2 c2 c2|1 "D"d2 z2 F2:|2 "D" d2 z2||

